Suru++-Ubuntu/apps/scalable/anjuta.svg

<svg width="256" height="256" version="1.1" viewBox="0 0 67.73 67.73" xmlns="http://www.w3.org/2000/svg" xmlns:xlink="http://www.w3.org/1999/xlink">
 <defs>
  <linearGradient id="linearGradient1108" x1="296" x2="296" y1="-212" y2="236" gradientUnits="userSpaceOnUse">
   <stop style="stop-color:#ffffff" offset="0"/>
   <stop style="stop-color:#ffffff;stop-opacity:.09803922" offset=".125"/>
   <stop style="stop-color:#000000;stop-opacity:.09803922" offset=".925"/>
   <stop style="stop-color:#000000;stop-opacity:.49803922" offset="1"/>
  </linearGradient>
  <clipPath id="clipPath1082-3-361">
   <path d="M 361.9375,-212 C 507.2348,-212 528,-191.28677 528,-46.125 V 70.125 C 528,215.28618 507.2348,236 361.9375,236 H 214.0625 C 68.7652,236 48,215.28618 48,70.125 V -46.125 C 48,-191.28677 68.7652,-212 214.0625,-212 Z" style="fill:#8c59d9"/>
  </clipPath>
  <filter id="filter4569" x="-.01" y="-.01" width="1.023" height="1.025" style="color-interpolation-filters:sRGB">
   <feGaussianBlur stdDeviation="1.16"/>
  </filter>
  <filter id="filter939" x="-.02" y="-.03" width="1.046" height="1.05" style="color-interpolation-filters:sRGB">
   <feGaussianBlur stdDeviation="2.32"/>
  </filter>
  <linearGradient id="linearGradient1537" x1="88" x2="256" y1="28" y2="284" gradientTransform="matrix(.26970781 0 0 .26970781 -7.1289179 220.5605)" gradientUnits="userSpaceOnUse">
   <stop style="stop-color:#9c039e" offset="0"/>
   <stop style="stop-color:#e050e2" offset="1"/>
  </linearGradient>
  <filter id="filter2450" x="-.05" y="-.05" width="1.098" height="1.095" style="color-interpolation-filters:sRGB">
   <feGaussianBlur stdDeviation="3.924"/>
  </filter>
 </defs>
 <g transform="translate(0,-229.26666)">
  <path transform="matrix(.26970779 0 0 .26970779 -1.9098094e-8 231.46531)" d="m162.53675 5.5680001c72.64865 0 83.03125 10.356615 83.03125 82.937505v58.125005c0 72.58059-10.3826 82.9375-83.03125 82.9375h-73.937496c-72.648654 0-83.031254-10.35691-83.031254-82.9375v-58.125005c0-72.58089 10.3826-82.937505 83.031254-82.937505z" style="filter:url(#filter939);opacity:.2"/>
  <path d="m43.837429 232.42763c19.593907 0 22.394176 2.79326 22.394176 22.36889v15.67677c0 19.57555-2.800269 22.36889-22.394176 22.36889h-19.941519c-19.593909 0-22.394177-2.79334-22.394177-22.36889v-15.67677c0-19.57563 2.8002682-22.36889 22.394177-22.36889z" style="fill:none;opacity:.1;stroke-linecap:round;stroke-linejoin:round;stroke-width:1.0788311;stroke:#000000"/>
  <path transform="matrix(.26970779 0 0 .26970779 -1.9098094e-8 231.46531)" d="m162.53675 3.5680001c72.64865 0 83.03125 10.356615 83.03125 82.937505v58.125005c0 72.58059-10.3826 82.9375-83.03125 82.9375h-73.937496c-72.648654 0-83.031254-10.35691-83.031254-82.9375v-58.125005c0-72.58089 10.3826-82.937505 83.031254-82.937505z" style="filter:url(#filter4569);opacity:.1"/>
  <path d="m43.837427 232.42763c19.593907 0 22.394175 2.79326 22.394175 22.36889v15.67677c0 19.57555-2.800268 22.36889-22.394175 22.36889h-19.94152c-19.593907 0-22.394176-2.79334-22.394176-22.36889v-15.67677c0-19.57563 2.8002682-22.36889 22.394176-22.36889z" style="fill:url(#linearGradient1537)"/>
  <path d="m33.866666 232.42763v60.41455h9.970761c19.593907 0 22.394175-2.79334 22.394175-22.36889v-15.67677c0-19.57563-2.800268-22.36889-22.394175-22.36889z" style="fill:#090000;opacity:.1"/>
  <path d="m23.895907 292.84218c-19.593907 0-22.394176-2.79325-22.394176-22.36884v-7.83837h64.729871v7.83837c0 19.57559-2.800268 22.36884-22.394175 22.36884z" style="fill:#181818;opacity:.1"/>
  <path transform="matrix(.26458333 0 0 .26458333 0 229.26666)" d="m5.6757812 138.78711c-0.0207696 0.07504-0.0597943 0.14956-0.0800781 0.22461 0 0 0.079427-0.05226 0.0800781-0.05274v-0.17187z" style="fill:#ffffff"/>
  <path transform="matrix(.26458333 0 0 .26458333 0 229.26666)" d="m8.5703125 200.51367c0.5215856 2.70711 1.1163843 5.26027 1.8203125 7.6211 0.73623 2.46915 1.578113 4.75548 2.539063 6.87109 0.960949 2.11561 2.04046 4.05978 3.251953 5.84766 1.211493 1.78787 2.555108 3.41833 4.042968 4.90429 1.487861 1.48596 3.120103 2.82725 4.910157 4.03711 1.790053 1.20986 3.737399 2.28848 5.855468 3.24805 2.11807 0.95957 4.406996 1.80005 6.878907 2.53515 2.471911 0.73511 5.126939 1.3659 7.978515 1.90235 2.851577 0.53645 5.899184 0.98013 9.15625 1.34375 3.257066 0.36361 6.723729 0.64669 10.41211 0.86328 7.376761 0.43319 15.641473 0.59766 24.898437 0.59766h57.753907c2.73543-9.25917 3.52413-20.46699-3.66602-29.8711-11.81831-15.49047-40.98948-61.68424-15.20312-76.24218 0 0 19.07639 25.01746 39.375 27.40234 1e-5 0 8.29466 21.86273 26.64453 10.89258 6.54791-3.55465 9.23444-18.52167 2.62695-28.06641l-5.20312-7.62305s-13.68764-42.912433-25.95508-55.312496c0 0-0.27333-20.138357 3.97266-30.136719 0 0-8.00385 0.882238-10.36524 5.175781 0 0-2.36687-13.166715 0-15.535156 0 0-19.32432 12.601344-20.73242 20.712891 0 0-55.052939-16.444653-93.289062 20.710937 0 0 25.9092-1.914784 31.097656 0 0 0-53.433771 30.558552-62.115235 61.923832v0.16211c0.139476-0.10243 15.941568-11.7055 20.648438-10.31055-6.176815 13.32072-13.453188 33.16683-19.789063 53.2207 0.064489 0.85266-3.508473 6.67517-7.5449215 13.125z" style="fill:#0f0f0f;filter:url(#filter2450);opacity:.3"/>
  <path transform="matrix(.26458333 0 0 .26458333 0 229.26666)" d="m8.5703125 200.51367c0.5215856 2.70711 1.1163843 5.26027 1.8203125 7.6211 0.73623 2.46915 1.578113 4.75548 2.539063 6.87109 0.960949 2.11561 2.04046 4.05978 3.251953 5.84766 1.211493 1.78787 2.555108 3.41833 4.042968 4.90429 1.487861 1.48596 3.120103 2.82725 4.910157 4.03711 1.790053 1.20986 3.737399 2.28848 5.855468 3.24805 2.11807 0.95957 4.406996 1.80005 6.878907 2.53515 2.471911 0.73511 5.126939 1.3659 7.978515 1.90235 2.851577 0.53645 5.899184 0.98013 9.15625 1.34375 3.257066 0.36361 6.723729 0.64669 10.41211 0.86328 7.376761 0.43319 15.641473 0.59766 24.898437 0.59766h57.753907c2.73543-9.25917 3.52413-20.46699-3.66602-29.8711-11.81831-15.49047-40.98948-61.68424-15.20312-76.24218 0 0 19.07639 25.01746 39.375 27.40234 1e-5 0 8.29466 21.86273 26.64453 10.89258 6.54791-3.55465 9.23444-18.52167 2.62695-28.06641l-5.20312-7.62305s-13.68764-42.912433-25.95508-55.312496c0 0-0.27333-20.138357 3.97266-30.136719 0 0-8.00385 0.882238-10.36524 5.175781 0 0-2.36687-13.166715 0-15.535156 0 0-19.32432 12.601344-20.73242 20.712891 0 0-55.052939-16.444653-93.289062 20.710937 0 0 25.9092-1.914784 31.097656 0 0 0-53.433771 30.558552-62.115235 61.923832v0.16211c0.139476-0.10243 15.941568-11.7055 20.648438-10.31055-6.176815 13.32072-13.453188 33.16683-19.789063 53.2207 0.064489 0.85266-3.508473 6.67517-7.5449215 13.125z" style="fill:#f3f3f3"/>
  <path transform="matrix(.1348539 0 0 .1348539 -4.9712559 261.01666)" d="M 361.9375,-212 C 507.2348,-212 528,-191.28677 528,-46.125 V 70.125 C 528,215.28618 507.2348,236 361.9375,236 H 214.0625 C 68.7652,236 48,215.28618 48,70.125 V -46.125 C 48,-191.28677 68.7652,-212 214.0625,-212 Z" clip-path="url(#clipPath1082-3-361)" style="fill:none;opacity:.4;stroke-linecap:round;stroke-linejoin:round;stroke-width:8;stroke:url(#linearGradient1108)"/>
 </g>
</svg>

<svg xmlns="http://www.w3.org/2000/svg" xmlns:xlink="http://www.w3.org/1999/xlink" width="256" height="256" version="1.1" viewBox="0 0 67.73 67.73">
 <defs>
  <linearGradient id="linearGradient1108" x1="296" x2="296" y1="-212" y2="236" gradientUnits="userSpaceOnUse" xlink:href="#linearGradient1013"/>
  <linearGradient id="linearGradient1013">
   <stop style="stop-color:#ffffff" offset="0"/>
   <stop offset=".125" style="stop-color:#ffffff;stop-opacity:0.09803922"/>
   <stop offset=".925" style="stop-color:#000000;stop-opacity:0.09803922"/>
   <stop style="stop-color:#000000;stop-opacity:0.49803922" offset="1"/>
  </linearGradient>
  <clipPath id="clipPath1082-3-361" clipPathUnits="userSpaceOnUse">
   <path style="fill:#8c59d9" d="M 361.9375,-212 C 507.2348,-212 528,-191.28677 528,-46.125 V 70.125 C 528,215.28618 507.2348,236 361.9375,236 H 214.0625 C 68.7652,236 48,215.28618 48,70.125 V -46.125 C 48,-191.28677 68.7652,-212 214.0625,-212 Z"/>
  </clipPath>
  <linearGradient id="linearGradient4245">
   <stop style="stop-color:#9c039e" offset="0"/>
   <stop style="stop-color:#e050e2" offset="1"/>
  </linearGradient>
  <filter id="filter4569" width="1.023" height="1.025" x="-.01" y="-.01" style="color-interpolation-filters:sRGB">
   <feGaussianBlur stdDeviation="1.16"/>
  </filter>
  <filter id="filter939" width="1.046" height="1.05" x="-.02" y="-.03" style="color-interpolation-filters:sRGB">
   <feGaussianBlur stdDeviation="2.32"/>
  </filter>
  <linearGradient id="linearGradient1537" x1="88" x2="256" y1="28" y2="284" gradientTransform="matrix(0.26970781,0,0,0.26970781,-7.1289179,220.5605)" gradientUnits="userSpaceOnUse" xlink:href="#linearGradient4245"/>
  <filter id="filter2450" width="1.098" height="1.095" x="-.05" y="-.05" style="color-interpolation-filters:sRGB">
   <feGaussianBlur stdDeviation="3.924"/>
  </filter>
 </defs>
 <g transform="translate(0,-229.26666)">
  <path d="m 162.53675,5.5680001 c 72.64865,0 83.03125,10.3566149 83.03125,82.9375049 v 58.125005 c 0,72.58059 -10.3826,82.9375 -83.03125,82.9375 H 88.599254 C 15.9506,229.56801 5.568,219.2111 5.568,146.63051 V 88.505505 c 0,-72.58089 10.3826,-82.9375049 83.031254,-82.9375049 z" transform="matrix(0.26970779,0,0,0.26970779,-1.9098094e-8,231.46531)" style="opacity:0.2;filter:url(#filter939)"/>
  <path style="opacity:0.1;fill:none;stroke:#000000;stroke-width:1.07883108;stroke-linecap:round;stroke-linejoin:round" d="m 43.837429,232.42763 c 19.593907,0 22.394176,2.79326 22.394176,22.36889 v 15.67677 c 0,19.57555 -2.800269,22.36889 -22.394176,22.36889 H 23.89591 c -19.5939088,0 -22.394177,-2.79334 -22.394177,-22.36889 v -15.67677 c 0,-19.57563 2.8002682,-22.36889 22.394177,-22.36889 z"/>
  <path style="opacity:0.1;filter:url(#filter4569)" d="m 162.53675,3.5680001 c 72.64865,0 83.03125,10.3566149 83.03125,82.9375049 v 58.125005 c 0,72.58059 -10.3826,82.9375 -83.03125,82.9375 H 88.599254 C 15.9506,227.56801 5.568,217.2111 5.568,144.63051 V 86.505505 c 0,-72.58089 10.3826,-82.9375049 83.031254,-82.9375049 z" transform="matrix(0.26970779,0,0,0.26970779,-1.9098094e-8,231.46531)"/>
  <path d="m 43.837427,232.42763 c 19.593907,0 22.394175,2.79326 22.394175,22.36889 v 15.67677 c 0,19.57555 -2.800268,22.36889 -22.394175,22.36889 h -19.94152 c -19.5939074,0 -22.3941756,-2.79334 -22.3941756,-22.36889 v -15.67677 c 0,-19.57563 2.8002682,-22.36889 22.3941756,-22.36889 z" style="fill:url(#linearGradient1537)"/>
  <path d="m 33.866666,232.42763 v 60.41455 h 9.970761 c 19.593907,0 22.394175,-2.79334 22.394175,-22.36889 v -15.67677 c 0,-19.57563 -2.800268,-22.36889 -22.394175,-22.36889 z" style="opacity:0.1;fill:#090000"/>
  <path d="m 23.895907,292.84218 c -19.5939074,0 -22.3941756,-2.79325 -22.3941756,-22.36884 v -7.83837 H 66.231602 v 7.83837 c 0,19.57559 -2.800268,22.36884 -22.394175,22.36884 z" style="opacity:0.1;fill:#181818"/>
  <path style="fill:none;stroke:#060303;stroke-width:0.49609375;stroke-linecap:round;stroke-linejoin:round"/>
  <path style="fill:none;stroke:#060303;stroke-width:0.49609375;stroke-linecap:round;stroke-linejoin:round"/>
  <path d="M 5.6757812 138.78711 C 5.6550116 138.86215 5.6159869 138.93667 5.5957031 139.01172 C 5.5957031 139.01172 5.6751301 138.95946 5.6757812 138.95898 L 5.6757812 138.78711 z" transform="matrix(0.26458333,0,0,0.26458333,0,229.26666)" style="fill:#ffffff"/>
  <path style="fill:#0f0f0f;filter:url(#filter2450);opacity:0.3" d="M 8.5703125 200.51367 C 9.0918981 203.22078 9.6866968 205.77394 10.390625 208.13477 C 11.126855 210.60392 11.968738 212.89025 12.929688 215.00586 C 13.890637 217.12147 14.970148 219.06564 16.181641 220.85352 C 17.393134 222.64139 18.736749 224.27185 20.224609 225.75781 C 21.71247 227.24377 23.344712 228.58506 25.134766 229.79492 C 26.924819 231.00478 28.872165 232.0834 30.990234 233.04297 C 33.108304 234.00254 35.39723 234.84302 37.869141 235.57812 C 40.341052 236.31323 42.99608 236.94402 45.847656 237.48047 C 48.699233 238.01692 51.74684 238.4606 55.003906 238.82422 C 58.260972 239.18783 61.727635 239.47091 65.416016 239.6875 C 72.792777 240.12069 81.057489 240.28516 90.314453 240.28516 L 148.06836 240.28516 C 150.80379 231.02599 151.59249 219.81817 144.40234 210.41406 C 132.58403 194.92359 103.41286 148.72982 129.19922 134.17188 C 129.19922 134.17188 148.27561 159.18934 168.57422 161.57422 C 168.57423 161.57422 176.86888 183.43695 195.21875 172.4668 C 201.76666 168.91215 204.45319 153.94513 197.8457 144.40039 L 192.64258 136.77734 C 192.64258 136.77734 178.95494 93.864907 166.6875 81.464844 C 166.6875 81.464844 166.41417 61.326487 170.66016 51.328125 C 170.66016 51.328125 162.65631 52.210363 160.29492 56.503906 C 160.29492 56.503906 157.92805 43.337191 160.29492 40.96875 C 160.29492 40.96875 140.9706 53.570094 139.5625 61.681641 C 139.5625 61.681641 84.509561 45.236988 46.273438 82.392578 C 46.273438 82.392578 72.182638 80.477794 77.371094 82.392578 C 77.371094 82.392578 23.937323 112.95113 15.255859 144.31641 L 15.255859 144.47852 C 15.395335 144.37609 31.197427 132.77302 35.904297 134.16797 C 29.727482 147.48869 22.451109 167.3348 16.115234 187.38867 C 16.179723 188.24133 12.606761 194.06384 8.5703125 200.51367 z" transform="matrix(0.26458333,0,0,0.26458333,0,229.26666)"/>
  <path d="M 8.5703125 200.51367 C 9.0918981 203.22078 9.6866968 205.77394 10.390625 208.13477 C 11.126855 210.60392 11.968738 212.89025 12.929688 215.00586 C 13.890637 217.12147 14.970148 219.06564 16.181641 220.85352 C 17.393134 222.64139 18.736749 224.27185 20.224609 225.75781 C 21.71247 227.24377 23.344712 228.58506 25.134766 229.79492 C 26.924819 231.00478 28.872165 232.0834 30.990234 233.04297 C 33.108304 234.00254 35.39723 234.84302 37.869141 235.57812 C 40.341052 236.31323 42.99608 236.94402 45.847656 237.48047 C 48.699233 238.01692 51.74684 238.4606 55.003906 238.82422 C 58.260972 239.18783 61.727635 239.47091 65.416016 239.6875 C 72.792777 240.12069 81.057489 240.28516 90.314453 240.28516 L 148.06836 240.28516 C 150.80379 231.02599 151.59249 219.81817 144.40234 210.41406 C 132.58403 194.92359 103.41286 148.72982 129.19922 134.17188 C 129.19922 134.17188 148.27561 159.18934 168.57422 161.57422 C 168.57423 161.57422 176.86888 183.43695 195.21875 172.4668 C 201.76666 168.91215 204.45319 153.94513 197.8457 144.40039 L 192.64258 136.77734 C 192.64258 136.77734 178.95494 93.864907 166.6875 81.464844 C 166.6875 81.464844 166.41417 61.326487 170.66016 51.328125 C 170.66016 51.328125 162.65631 52.210363 160.29492 56.503906 C 160.29492 56.503906 157.92805 43.337191 160.29492 40.96875 C 160.29492 40.96875 140.9706 53.570094 139.5625 61.681641 C 139.5625 61.681641 84.509561 45.236988 46.273438 82.392578 C 46.273438 82.392578 72.182638 80.477794 77.371094 82.392578 C 77.371094 82.392578 23.937323 112.95113 15.255859 144.31641 L 15.255859 144.47852 C 15.395335 144.37609 31.197427 132.77302 35.904297 134.16797 C 29.727482 147.48869 22.451109 167.3348 16.115234 187.38867 C 16.179723 188.24133 12.606761 194.06384 8.5703125 200.51367 z" transform="matrix(0.26458333,0,0,0.26458333,0,229.26666)" style="fill:#f3f3f3"/>
  <path style="opacity:0.4;fill:none;stroke:url(#linearGradient1108);stroke-width:8;stroke-linecap:round;stroke-linejoin:round" d="M 361.9375,-212 C 507.2348,-212 528,-191.28677 528,-46.125 V 70.125 C 528,215.28618 507.2348,236 361.9375,236 H 214.0625 C 68.7652,236 48,215.28618 48,70.125 V -46.125 C 48,-191.28677 68.7652,-212 214.0625,-212 Z" clip-path="url(#clipPath1082-3-361)" transform="matrix(0.1348539,0,0,0.1348539,-4.9712559,261.01666)"/>
 </g>
</svg>
